X:1
T:O Righteous, in the Lord Rejoice
T:Text: from Psalm 33; vers. Psalter, 1912, alt. Tune: James McGranahan, 1840-1907
T:886 D FRANCES www.hymnary.org/text/ye_righteous_in_the_lord_rejoice_tis_com
T:O Righteous, in the Lord Rejoice
T:This hymn is in the public domain. You may freely use this score for personal and congregational worship. If you reproduce the score, please credit Hymnary.org as the source. 
T:This hymn is in the public domain. You may freely use this score for personal and congregational worship. If you reproduce the score, please credit Hymnary.org as the source. 
Z:This hymn is in the public domain. You may freely use this score for personal and congregational worship. If you reproduce the score, please credit Hymnary.org as the source.
%%score ( 1 2 ) ( 3 4 )
L:1/8
M:4/4
K:Ab
V:1 treble nm="SOPRANO ALTO" snm="S. A."
V:2 treble 
V:3 bass nm="TENOR BASS" snm="T. B."
V:4 bass 
V:1
"^1""^2""^3" E2 | A3 B A2 E2 | C2 D2 E2 A2 | c3 d c2 | E2 | F2 G2 A2 c2 | c3 B B2 =D2 | E6 | E2 | %9
w: O|right- eous, in the|Lord re- joice; how|pleas- ant that|with|joy- ful voice God's|saints his name should|praise.|With|
w: The|Lord God from his|throne on high looks|down with clear|and|search- ing eye on|all that dwell be-|low.|And|
w: His|eye is on all|those who fear; to|those who hope,|the|Lord is near ac-|cord- ing to his|word.|Death|
 B3 A G2 A2 | B2 c2 d2 E2 | c3 B |1 A2 B2 | c2 d2 e2 E2 | F2 d2 c2 B2 | A6 x2 |] %16
w: harp and hymn of|glad- ness sing, your|gift of|sweet- est|mu- sic bring, to|him a new song|raise.|
w: he that fash- ioned|heart and mind looks|ev- er|down on|hu- man- kind the|works of all to|know.|
w: can- not touch those|in his hand, nor|trou- ble|con- quer|in the land; we|wait up- on the|Lord.|
V:2
 E2 | A3 B A2 E2 | C2 B,2 C2 C2 | E3 F E2 | E2 | D2 D2 C2 E2 | =D3 D D2 B,2 | B,6 | E2 | %9
 E3 E E2 C2 | E2 E2 E2 E2 | E3 E |1 E2 E2 | E2 G2 A2 E2 | D2 F2 E2 D2 | C6 x2 |] %16
V:3
 E,2 | A,3 B, A,2 E,2 | E,2 A,2 A,2 E,2 | A,3 A, A,2 | A,2 | A,2 E,2 E,2 A,2 | A,3 A, A,2 A,2 | %7
 G,6 | E,2 | D3 C B,2 A,2 | G,2 A,2 B,2 E,2 | E3 D |1 C2 G,2 | A,2 B,2 C2 A,2 | A,2 A,2 A,2 G,2 | %15
 A,6 x2 |] %16
V:4
 E,2 | A,3 B, A,2 E,2 | A,,2 A,,2 A,,2 A,,2 | A,,3 A,, A,,2 | C,2 | D,2 B,,2 A,,2 A,,2 | %6
 B,,3 B,, B,,2 B,,2 | E,6 | E,2 | E,3 E, E,2 E,2 | E,2 E,2 E,2 E,2 | A,3 G, |1 A,2 E,2 | %13
 A,2 B,2 C2 C,2 | D,2 B,,2 E,2 E,2 | A,,6 x2 |] %16

